src/parts/mouth/Eating.svg

<svg>
  <g transform="translate(76.000000, 82.000000)">
    <g
      id="Mouth/Eating"
      transform="translate(2.000000, 52.000000)"
    >
      <g
        id="Om-Nom-Nom"
        opacity="0.599999964"
        strokeWidth="1"
        transform="translate(28.000000, 6.000000)"
        fill="#000000"
      >
        <path
          id="Delicious"
          d="M16.1906378,10.106319 C16.0179484,4.99553347 11.7923466,0.797193688 6.29352385,0 C9.66004124,1.95870633 11.9804619,5.49520667 11.9804619,9.67694348 C11.9804619,15.344608 6.50694731,20.2451296 0.176591694,20.2451296 C0.11761218,20.2451296 0.0587475828,20.2447983 0,20.244138 L8.8963743e-11,20.244138 C1.35764479,20.7317259 2.83995964,21 4.39225962,21 C9.71395931,21 14.2131224,17.8469699 15.6863572,13.5136402 C18.1609431,15.6698775 21.8629994,17.0394229 26,17.0394229 C30.1370006,17.0394229 33.8390569,15.6698775 36.3136428,13.5136402 C37.7868776,17.8469699 42.2860407,21 47.6077404,21 C49.1600404,21 50.6423552,20.7317259 52,20.244138 L52,20.244138 C51.9412524,20.2447983 51.8823878,20.2451296 51.8234083,20.2451296 C45.4930527,20.2451296 40.0195381,15.344608 40.0195381,9.67694348 C40.0195381,5.49520667 42.3399588,1.95870633 45.7064761,0 C40.2076534,0.797193688 35.9820516,4.99553347 35.8093622,10.106319 C33.2452605,11.8422828 29.7948543,12.9056086 26,12.9056086 C22.2051457,12.9056086 18.7547395,11.8422828 16.1906378,10.106319 Z"
        />
      </g>
      <circle
        id="Redish"
        opacity="0.2"
        fill="#FF4646"
        cx="17"
        cy="15"
        r="9"
      />
      <circle
        id="Redish"
        opacity="0.2"
        fill="#FF4646"
        cx="91"
        cy="15"
        r="9"
      />
    </g>
  </g>
</svg>

<svg>
  <g transform="translate(76 82)">
    <g id="Mouth/Eating" transform="translate(2 52)">
      <g id="Om-Nom-Nom" fill="#000" opacity=".6" transform="translate(28 6)">
        <path id="Delicious" d="M16.19 10.106C16.019 4.996 11.793.797 6.295 0 9.66 1.959 11.98 5.495 11.98 9.677c0 5.668-5.473 10.568-11.803 10.568H0A13 13 0 0 0 4.392 21c5.322 0 9.821-3.153 11.294-7.486 2.475 2.156 6.177 3.525 10.314 3.525 4.137 0 7.84-1.37 10.314-3.525C37.787 17.847 42.286 21 47.608 21c1.552 0 3.034-.268 4.392-.756l-.177.001c-6.33 0-11.803-4.9-11.803-10.568 0-4.182 2.32-7.718 5.686-9.677-5.498.797-9.724 4.996-9.897 10.106-2.564 1.736-6.014 2.8-9.809 2.8-3.795 0-7.245-1.064-9.81-2.8Z"/>
      </g>
      <circle id="Redish" cx="17" cy="15" r="9" fill="#FF4646" opacity=".2"/>
      <circle id="Redish" cx="91" cy="15" r="9" fill="#FF4646" opacity=".2"/>
    </g>
  </g>
</svg>
